Simply-Orange-Circles/scalable/apps/labplot.svg

<svg xmlns="http://www.w3.org/2000/svg" width="48" height="48" viewBox="0 0 12.7 12.7"><path d="M6.34.07a6.29 6.29 0 0 0-6.29 6.3 6.29 6.29 0 0 0 6.3 6.28 6.29 6.29 0 0 0 6.28-6.29A6.29 6.29 0 0 0 6.34.07zm-.01.94a5.4 5.4 0 0 1 5.4 5.35h-1.22v.41h1.2a5.4 5.4 0 0 1-5.38 5.05 5.4 5.4 0 0 1-5.4-5.05H2.2v-.41H.92A5.4 5.4 0 0 1 6.32 1zm-3.3 5.35v.41h1.66v-.41H3.03zm2.49 0v.41h1.66v-.41H5.52zm2.5 0v.41h1.65v-.41H8.01z" fill="#ff7f2a"/><path d="M1.99 8.23s3 1.66 4.15.83c2.25-1.61-2.2-5.77.42-6.65 1.73-.58 3.74 3.32 3.74 3.32" fill="none" stroke="#ff7f2a" stroke-width=".42" stroke-linecap="round" stroke-linejoin="round"/></svg>

<?xml version="1.0" encoding="UTF-8" standalone="no"?>
<svg
   xmlns:dc="http://purl.org/dc/elements/1.1/"
   xmlns:cc="http://creativecommons.org/ns#"
   xmlns:rdf="http://www.w3.org/1999/02/22-rdf-syntax-ns#"
   xmlns:svg="http://www.w3.org/2000/svg"
   xmlns="http://www.w3.org/2000/svg"
   xmlns:sodipodi="http://sodipodi.sourceforge.net/DTD/sodipodi-0.dtd"
   xmlns:inkscape="http://www.inkscape.org/namespaces/inkscape"
   width="48"
   height="48"
   viewBox="0 0 12.7 12.7"
   version="1.1"
   id="svg6"
   sodipodi:docname="labplot.svg"
   inkscape:version="0.92.4 (5da689c313, 2019-01-14)">
  <metadata
     id="metadata12">
    <rdf:RDF>
      <cc:Work
         rdf:about="">
        <dc:format>image/svg+xml</dc:format>
        <dc:type
           rdf:resource="http://purl.org/dc/dcmitype/StillImage" />
        <dc:title></dc:title>
      </cc:Work>
    </rdf:RDF>
  </metadata>
  <defs
     id="defs10" />
  <sodipodi:namedview
     pagecolor="#ffffff"
     bordercolor="#666666"
     borderopacity="1"
     objecttolerance="10"
     gridtolerance="10"
     guidetolerance="10"
     inkscape:pageopacity="0"
     inkscape:pageshadow="2"
     inkscape:window-width="1087"
     inkscape:window-height="480"
     id="namedview8"
     showgrid="false"
     inkscape:zoom="4.9166667"
     inkscape:cx="2.1355932"
     inkscape:cy="24"
     inkscape:window-x="0"
     inkscape:window-y="25"
     inkscape:window-maximized="0"
     inkscape:current-layer="svg6" />
  <path
     d="M 6.34,0.07 A 6.29,6.29 0 0 0 0.05,6.37 6.29,6.29 0 0 0 6.35,12.65 6.29,6.29 0 0 0 12.63,6.36 6.29,6.29 0 0 0 6.34,0.07 Z M 6.33,1.01 a 5.4,5.4 0 0 1 5.4,5.35 h -1.22 v 0.41 h 1.2 A 5.4,5.4 0 0 1 6.33,11.82 5.4,5.4 0 0 1 0.93,6.77 H 2.2 V 6.36 H 0.92 A 5.4,5.4 0 0 1 6.32,1 Z M 3.03,6.36 V 6.77 H 4.69 V 6.36 Z m 2.49,0 V 6.77 H 7.18 V 6.36 Z m 2.5,0 V 6.77 H 9.67 V 6.36 H 8.01 Z"
     id="path2"
     inkscape:connector-curvature="0"
     style="fill:#ff7f2a" />
  <path
     d="m 1.99,8.23 c 0,0 3,1.66 4.15,0.83 C 8.39,7.45 3.94,3.29 6.56,2.41 8.29,1.83 10.3,5.73 10.3,5.73"
     id="path4"
     inkscape:connector-curvature="0"
     style="fill:none;stroke:#ff7f2a;stroke-width:0.41999999;stroke-linecap:round;stroke-linejoin:round" />
</svg>
